assets/Up-left arrow/Flat/up-left_arrow_flat.svg

<svg width="32" height="32" viewBox="0 0 32 32" fill="none" xmlns="http://www.w3.org/2000/svg">
<path d="M2 6C2 3.79086 3.79086 2 6 2H26C28.2091 2 30 3.79086 30 6V26C30 28.2091 28.2091 30 26 30H6C3.79086 30 2 28.2091 2 26V6Z" fill="#00A6ED"/>
<path d="M9.00001 9.75383C8.99788 9.33663 9.33663 8.99788 9.75383 9.00001L17.0467 9.03723C17.713 9.04063 18.0444 9.84638 17.5732 10.3175L15.6566 12.2341C15.5297 12.3611 15.5756 12.5824 15.7057 12.7061C15.7119 12.712 15.718 12.7179 15.7241 12.724L23.3098 20.3098C23.7004 20.7003 23.7004 21.3335 23.3098 21.724L21.7241 23.3098C21.3335 23.7003 20.7004 23.7003 20.3098 23.3098L12.7241 15.724C12.718 15.7179 12.712 15.7118 12.7061 15.7056C12.5824 15.5755 12.3611 15.5296 12.2342 15.6566L10.3176 17.5732C9.84638 18.0444 9.04063 17.713 9.03723 17.0467L9.00001 9.75383Z" fill="white"/>
</svg>

<svg xmlns="http://www.w3.org/2000/svg" width="32" height="32" fill="none"><path fill="#00A6ED" d="M2 6a4 4 0 0 1 4-4h20a4 4 0 0 1 4 4v20a4 4 0 0 1-4 4H6a4 4 0 0 1-4-4V6Z"/><path fill="#fff" d="M9 9.754A.75.75 0 0 1 9.754 9l7.293.037a.75.75 0 0 1 .526 1.28l-1.916 1.917c-.127.127-.081.348.049.472l.018.018 7.586 7.586a1 1 0 0 1 0 1.414l-1.586 1.586a1 1 0 0 1-1.414 0l-7.586-7.586a1.037 1.037 0 0 1-.018-.018c-.124-.13-.345-.176-.472-.05l-1.916 1.917a.75.75 0 0 1-1.28-.526L9 9.754Z"/></svg>
